X:254
T:Humours of Lissadell
R:reel
D:Bothy Band: 1975
Z:id:hn-reel-560
M:C|
K:Edor
eB~B2 eBdB|AF~F2 EDB,A,|B,E~E2 B,EGE|FB~B2 FBdf|
e2df efdB|AF~F2 EDB,A,|B,E~E2 DEFA|(3Bcd ef ~e3f:|
|:eB~B2 A2FA|dcde fgfe|df~f2 dfbf|afdf ~e3f|
defd BcdB|AF~F2 ABde|~f3e dfbf|afdf ~e3f:|
